X: 23
T: Miss Barbara Parkers Fancy
R: strathspey
B: Bland & Weller, eds. "24 Favorite Country Dances, Hornpipes and Reels", 1803, London p.12 #23
S: http://imslp.org/wiki/24_Favorite_Country_Dances,_Hornpipes_and_Reels_(Various)
M: C
L: 1/16
Z: 2012 John Chambers <jc:trillian.mit.edu>
K: E
EF |\
G3AG2E2 G2B2B2e2 | f3g agfe {d}c6 {^d}e2 |\
G3AG2E2 G2B2B2 {fg}a2 | g3e (gfe)d (d4 e2) :|
|: (3(edc) |\
BBB2 B3G B2G2B2e2 | ccc2 {b}a2gf e2d2Tc2B2 |\
BBB2 B2G2 B2G2B2{^d}e2 | g3e gfed (d4 e2) :|
%%begintext align
%% Set & Change Sides .|
%% back again :|
%% lead down the middle up again :|.
%% Allemand :|:
%%endtext

%%sep 1 1 500
%%sep 1 1 500
